X: 1
T:Mullin's Favorite -- Reel
M:C|
L:1/8
R:reel
B:Ryan's Mammoth Collection
N:247
Z:Contributed by Ray Davies,  ray:davies99.freeserve.co.uk
K:A
u(ed)|\
cAFA BAFE | cefg a2(ga) | b2(ga) fecA | BcBA F2(ed) |
cAFA BAFE | cefg a2(ga) | fecA eaec | {c}BABc A2  :|
|:u(ec)|\
e2(ec) ecea | f2(fd) fdfb | g2(ge) bgeg | agfe fecd |
e2(ec) ecea | f2(fd) fdfb | gaba gefg | a2 {b}ag a2  :|
